X:116
T:Scoti Cam O’er The Borders. RHu.116
S:R.Hughes MS,1823,Whitchurch,Shrops.
A:Whitchurch, Shropshire
Z:Tony Weatherall 2006
M:6/8
L:1/8
Q:3/8=100
R:Quickstep
K:C
C3E2G|c/d/ed c2G|A>cA A2a|agf edc|!
C3E2G|c/d/ed c2G|AcA GEG|A/B/cE D2C:|!
|:e>fg geg|age edc|Aaa abc’|d/e/fe d2c|!
efg geg|age d2c|cAA GEG|A/B/cE D2C:|

